X:116
T:Miss Peachy's Delight
M:6/8
L:1/8
B:Thompson's Compleat Collection of 200 Favourite Country Dances, vol. 1 (London, 1757)
Z:Transcribed and edited by Flynn Titford-Mock, 2007
Z:abc's:AK/Fiddler's Companion
K:D
(f/e/)|d2A (F>E)D|(EF)E (cB)c|d2A F2E|(FD)D D2::A|(dc)d (Bc)d|efd "tr"c2A|
(dc)d (ef)g|(fd)d d2f|(gf)g (Bc)d|efd "tr"c>Bc|d2A F2E|FDD D2:|

